img/icon-education.svg

<svg width="256" height="256" viewBox="0 0 256 256" fill="none" xmlns="http://www.w3.org/2000/svg">
<g clip-path="url(#clip0)">
<path d="M102.295 190.262H50.1396V201.404H102.295V190.262Z" fill="#FFB600"/>
<path d="M102.295 168.721H50.1396V179.863H102.295V168.721Z" fill="#FFB600"/>
<path d="M102.295 147.181H50.1396V158.323H102.295V147.181Z" fill="#FFB600"/>
<path d="M127.654 243.426C119.907 239.925 96.8275 230.48 73.5354 230.48C46.7417 230.48 26.5269 239.5 19.2051 243.267C19.2051 249.634 19.2051 256.001 19.2051 256.001C19.2051 256.001 21.3804 254.887 22.0702 254.409C22.2824 254.25 43.6113 241.622 73.4824 241.622C98.7906 241.622 125.054 254.515 125.319 254.621L128.078 256.001L130.678 254.409C130.89 254.303 152.219 241.622 182.09 241.622C209.627 241.622 232.388 253.879 233.768 254.568C235.094 255.205 236.42 256.001 236.42 256.001C236.42 256.001 236.42 249.634 236.42 243.426C228.992 239.872 207.239 230.48 182.09 230.48C155.243 230.48 134.763 239.712 127.654 243.426Z" fill="#FFB600"/>
<path d="M179.439 104.575C182.516 104.575 185.593 104.416 188.565 104.151C203.58 111.261 226.235 112.587 240.985 112.587C249.739 112.587 255.735 112.109 255.735 112.109C239.075 109.138 231.01 99.0574 227.243 91.4703C242.258 81.92 251.702 67.8599 251.702 52.2611C251.702 23.3981 219.338 0 179.439 0C145.695 0 117.362 16.713 109.404 39.3152C100.49 35.2829 90.2499 33.0014 79.3733 33.0014C44.8332 33.0014 16.8191 56.0812 16.8191 84.5728C16.8191 94.8128 20.4269 104.363 26.6877 112.428C23.292 123.782 15.811 139.434 0 143.944C0 143.944 5.57098 144.633 13.6887 144.633C15.4396 144.633 17.2435 144.58 19.2066 144.527V238.916C19.2066 238.916 41.5436 225.333 73.537 225.333C100.49 225.333 127.867 238.916 127.867 238.916C127.867 238.916 150.364 225.333 182.198 225.333C211.591 225.333 236.528 238.916 236.528 238.916V130.149C236.528 130.149 216.154 116.566 182.198 116.566C148.135 116.566 127.867 130.149 127.867 130.149C127.867 130.149 124.419 127.867 118.052 125.161C129.088 117.999 137.099 107.865 140.336 96.1923V96.2454C151.584 101.498 165.007 104.575 179.439 104.575ZM134.871 24.4062C146.65 15.9171 162.461 11.195 179.439 11.195C196.417 11.195 212.228 15.864 224.007 24.4062C234.671 32.0995 240.56 42.0211 240.56 52.3142C240.56 57.7791 238.916 63.1378 235.679 68.1782C232.39 73.3778 227.349 78.206 221.195 82.1322L212.759 87.544L217.215 96.5107C217.905 97.8371 218.595 99.1635 219.391 100.384C208.514 99.2166 199.547 97.0412 193.287 94.07L190.528 92.7436L187.503 93.0089C184.851 93.2742 182.092 93.3803 179.386 93.3803C165.591 93.3803 152.592 90.303 141.874 84.5728C141.874 84.5728 141.874 84.5728 141.874 84.5198C141.874 68.5496 133.067 54.2773 119.272 44.8332C121.447 37.3521 126.753 30.2425 134.871 24.4062ZM166.493 186.708C167.13 187.291 167.501 188.034 167.554 188.883C167.607 189.732 167.342 190.581 166.758 191.217C166.175 191.854 165.432 192.225 164.53 192.279C163.681 192.332 162.885 192.066 162.248 191.536C161.452 190.687 160.126 187.822 158.8 184.214C162.514 185.116 165.538 186.018 166.493 186.708ZM191.005 187.079C191.907 186.336 194.825 185.222 198.539 184.108C197.425 187.769 196.311 190.687 195.568 191.642C194.295 192.862 192.279 192.862 191.058 191.589C189.785 190.368 189.785 188.352 191.005 187.079ZM178.749 175.406C175.353 175.406 172.647 172.647 172.647 169.305C172.647 167.448 175.247 161.877 178.749 155.669C182.304 161.877 184.851 167.448 184.851 169.305C184.851 172.647 182.092 175.406 178.749 175.406ZM146.862 133.491C154.396 130.839 166.599 127.655 182.198 127.655C197.69 127.655 209.947 130.839 217.481 133.491C220.664 134.606 223.317 135.773 225.333 136.728V222.044C214.828 218.33 200.29 214.509 184.267 214.191V200.449C186.867 202.572 190.103 203.633 193.287 203.633C196.948 203.633 200.662 202.253 203.421 199.441C207.559 195.303 210.53 182.728 211.644 177.529L213.395 169.199L205.065 170.95C202.837 171.427 199.229 172.223 195.515 173.337C195.833 172.011 195.993 170.684 195.993 169.252C195.993 161.718 186.336 146.437 183.365 141.927L178.696 134.818L174.027 141.927C171.056 146.437 161.399 161.718 161.399 169.252C161.399 170.737 161.559 172.117 161.93 173.496C157.845 172.488 153.812 171.852 151.372 171.48L142.989 170.26L145.217 178.431C146.596 183.577 150.364 195.886 154.767 199.813C157.42 202.147 160.763 203.421 164.264 203.421C164.583 203.421 164.901 203.421 165.166 203.367C168.085 203.208 170.844 202.147 173.072 200.396V214.456C156.147 215.677 142.246 220.187 133.226 223.901V139.911L134.022 139.381C134.446 139.115 138.956 136.303 146.862 133.491ZM122.137 139.699V224.325C110.889 219.974 92.3192 214.138 73.537 214.138C55.9221 214.138 40.96 217.905 30.3486 221.672V143.625C40.4825 142.299 51.3592 139.434 60.0605 133.704C66.1621 135.348 72.635 136.197 79.3733 136.197C88.1807 136.197 96.5107 134.712 104.098 132.006C105.796 132.536 107.387 133.014 108.767 133.544C116.672 136.356 121.235 139.168 121.713 139.434L122.137 139.699ZM105.955 131.316C106.008 131.316 106.008 131.316 106.061 131.263C106.008 131.316 105.955 131.316 105.955 131.316ZM116.248 126.276C116.354 126.223 116.46 126.17 116.566 126.116C116.46 126.17 116.354 126.223 116.248 126.276ZM109.563 129.777C109.616 129.777 109.669 129.724 109.722 129.724C109.669 129.777 109.616 129.777 109.563 129.777ZM111.261 128.982C111.314 128.928 111.42 128.928 111.473 128.875C111.42 128.928 111.314 128.982 111.261 128.982ZM114.656 127.178C114.762 127.125 114.868 127.071 114.975 127.018C114.868 127.071 114.762 127.125 114.656 127.178ZM116.513 112.481C106.698 120.599 93.4864 125.055 79.3733 125.055C73.7492 125.055 68.2313 124.313 62.9256 122.933L58.0974 121.66L53.9059 124.419C48.1227 128.292 39.9519 130.998 30.2425 132.377C33.1076 127.443 35.4951 121.872 37.3521 115.664L38.9969 110.146L35.4421 105.583C30.5078 99.2696 27.908 92.0008 27.908 84.5728C27.908 74.1737 32.9484 64.3051 42.1803 56.7179C51.9959 48.6002 65.207 44.1434 79.3202 44.1434C93.4334 44.1434 106.645 48.6002 116.46 56.7179C125.639 64.3051 130.732 74.2267 130.732 84.5728C130.785 94.972 125.745 104.894 116.513 112.481ZM140.76 94.4945C140.707 94.6537 140.707 94.8128 140.654 94.972C140.707 94.7598 140.76 94.6006 140.76 94.4945ZM141.927 86.0584C141.927 86.2176 141.927 86.3237 141.927 86.4829C141.874 86.3237 141.927 86.1646 141.927 86.0584ZM141.821 87.4379C141.821 87.5971 141.821 87.7563 141.768 87.9685C141.821 87.8093 141.821 87.6502 141.821 87.4379ZM141.715 88.8705C141.715 89.0296 141.662 89.2419 141.662 89.401C141.662 89.2419 141.715 89.0296 141.715 88.8705ZM141.556 90.2499C141.556 90.4622 141.503 90.6213 141.503 90.8336C141.503 90.6213 141.556 90.4622 141.556 90.2499ZM141.344 91.6294C141.291 91.7886 141.291 92.0008 141.238 92.16C141.291 92.0008 141.344 91.8417 141.344 91.6294ZM141.079 93.062C141.025 93.2211 141.025 93.4334 140.972 93.5925C141.025 93.3803 141.079 93.2211 141.079 93.062Z" fill="#FFB600"/>
</g>
<defs>
<clipPath id="clip0">
<rect width="256" height="256" fill="white"/>
</clipPath>
</defs>
</svg>

<svg width="256" height="256" fill="none" xmlns="http://www.w3.org/2000/svg"><g clip-path="url(#clip0)" fill="#FFB600"><path d="M102.295 190.262H50.14v11.142h52.155v-11.142zM102.295 168.721H50.14v11.142h52.155v-11.142zM102.295 147.181H50.14v11.142h52.155v-11.142zM127.654 243.426c-7.747-3.501-30.826-12.946-54.119-12.946-26.793 0-47.008 9.02-54.33 12.787v12.734s2.175-1.114 2.865-1.592c.212-.159 21.541-12.787 51.412-12.787 25.309 0 51.572 12.893 51.837 12.999l2.759 1.38 2.6-1.592c.212-.106 21.541-12.787 51.412-12.787 27.537 0 50.298 12.257 51.678 12.946a37.534 37.534 0 012.652 1.433v-12.575c-7.428-3.554-29.181-12.946-54.33-12.946-26.847 0-47.327 9.232-54.436 12.946z"/><path d="M179.439 104.575c3.077 0 6.154-.159 9.126-.424 15.015 7.11 37.67 8.436 52.42 8.436 8.754 0 14.75-.478 14.75-.478-16.66-2.971-24.725-13.052-28.492-20.639 15.015-9.55 24.459-23.61 24.459-39.209C251.702 23.398 219.338 0 179.439 0c-33.744 0-62.077 16.713-70.035 39.315-8.914-4.032-19.154-6.314-30.03-6.314-34.54 0-62.555 23.08-62.555 51.572 0 10.24 3.608 19.79 9.869 27.855C23.292 123.782 15.81 139.434 0 143.944c0 0 5.571.689 13.689.689 1.75 0 3.555-.053 5.518-.106v94.389s22.337-13.583 54.33-13.583c26.953 0 54.33 13.583 54.33 13.583s22.497-13.583 54.331-13.583c29.393 0 54.33 13.583 54.33 13.583V130.149s-20.374-13.583-54.33-13.583c-34.063 0-54.331 13.583-54.331 13.583s-3.448-2.282-9.815-4.988c11.036-7.162 19.047-17.296 22.284-28.969v.053c11.248 5.253 24.671 8.33 39.103 8.33zm-44.568-80.169c11.779-8.489 27.59-13.211 44.568-13.211 16.978 0 32.789 4.669 44.568 13.211 10.664 7.694 16.553 17.615 16.553 27.908 0 5.465-1.644 10.824-4.881 15.864-3.289 5.2-8.33 10.028-14.484 13.954l-8.436 5.412 4.456 8.967c.69 1.326 1.38 2.653 2.176 3.873-10.877-1.167-19.844-3.343-26.104-6.314l-2.759-1.326-3.025.265c-2.652.265-5.411.371-8.117.371-13.795 0-26.794-3.077-37.512-8.807v-.053c0-15.97-8.807-30.243-22.602-39.687 2.175-7.48 7.481-14.59 15.599-20.427zm31.622 162.302c.637.583 1.008 1.326 1.061 2.175.053.849-.212 1.698-.796 2.334a3.184 3.184 0 01-2.228 1.062 3.213 3.213 0 01-2.282-.743c-.796-.849-2.122-3.714-3.448-7.322 3.714.902 6.738 1.804 7.693 2.494zm24.512.371c.902-.743 3.82-1.857 7.534-2.971-1.114 3.661-2.228 6.579-2.971 7.534-1.273 1.22-3.289 1.22-4.51-.053-1.273-1.221-1.273-3.237-.053-4.51zm-12.256-11.673a6.102 6.102 0 01-6.102-6.101c0-1.857 2.6-7.428 6.102-13.636 3.555 6.208 6.102 11.779 6.102 13.636 0 3.342-2.759 6.101-6.102 6.101zm-31.887-41.915c7.534-2.652 19.737-5.836 35.336-5.836 15.492 0 27.749 3.184 35.283 5.836a80.23 80.23 0 017.852 3.237v85.316c-10.505-3.714-25.043-7.535-41.066-7.853v-13.742c2.6 2.123 5.836 3.184 9.02 3.184 3.661 0 7.375-1.38 10.134-4.192 4.138-4.138 7.109-16.713 8.223-21.912l1.751-8.33-8.33 1.751c-2.228.477-5.836 1.273-9.55 2.387.318-1.326.478-2.653.478-4.085 0-7.534-9.657-22.815-12.628-27.325l-4.669-7.109-4.669 7.109c-2.971 4.51-12.628 19.791-12.628 27.325 0 1.485.16 2.865.531 4.244-4.085-1.008-8.118-1.644-10.558-2.016l-8.383-1.22 2.228 8.171c1.379 5.146 5.147 17.455 9.55 21.382 2.653 2.334 5.996 3.608 9.497 3.608.319 0 .637 0 .902-.054a14.042 14.042 0 007.906-2.971v14.06c-16.925 1.221-30.826 5.731-39.846 9.445v-83.99l.796-.53c.424-.266 4.934-3.078 12.84-5.89zm-24.725 6.208v84.626c-11.248-4.351-29.818-10.187-48.6-10.187-17.615 0-32.577 3.767-43.188 7.534v-78.047c10.134-1.326 21.01-4.191 29.711-9.921 6.102 1.644 12.575 2.493 19.313 2.493 8.808 0 17.138-1.485 24.725-4.191 1.698.53 3.289 1.008 4.669 1.538 7.905 2.812 12.468 5.624 12.946 5.89l.424.265zm-16.182-8.383c.053 0 .053 0 .106-.053-.053.053-.106.053-.106.053zm10.293-5.04l.318-.16-.318.16zm-6.685 3.501c.053 0 .106-.053.159-.053-.053.053-.106.053-.159.053zm1.698-.795c.053-.054.159-.054.212-.107a.404.404 0 01-.212.107zm3.395-1.804l.319-.16-.319.16zm1.857-14.697c-9.815 8.118-23.027 12.574-37.14 12.574a65.308 65.308 0 01-16.447-2.122l-4.829-1.273-4.191 2.759c-5.783 3.873-13.954 6.579-23.663 7.958 2.865-4.934 5.252-10.505 7.11-16.713l1.644-5.518-3.555-4.563c-4.934-6.313-7.534-13.582-7.534-21.01 0-10.4 5.04-20.268 14.272-27.855 9.816-8.118 23.027-12.575 37.14-12.575s27.325 4.457 37.14 12.575c9.179 7.587 14.272 17.509 14.272 27.855.053 10.399-4.987 20.321-14.219 27.908zm24.247-17.986c-.053.159-.053.318-.106.477.053-.212.106-.371.106-.477zm1.167-8.437v.425c-.053-.16 0-.318 0-.425zm-.106 1.38c0 .16 0 .318-.053.53.053-.159.053-.318.053-.53zm-.106 1.433c0 .159-.053.37-.053.53 0-.16.053-.371.053-.53zm-.159 1.379c0 .212-.053.371-.053.584 0-.213.053-.372.053-.584zm-.212 1.38c-.053.159-.053.37-.106.53.053-.16.106-.318.106-.53zm-.265 1.432c-.054.16-.054.371-.107.53.053-.212.107-.37.107-.53z"/></g><defs><clipPath id="clip0"><path fill="#fff" d="M0 0h256v256H0z"/></clipPath></defs></svg>
